X:1
T:Sangerhilsen
T:Sangerhilsen
T:Edvard Grieg (1843-1907)
T:Sigvald Skavlan (1839-1912)
C:Edvard Grieg (1843-1907)
Z:Sigvald Skavlan (1839-1912)
%%score [ 1 2 3 4 ]
L:1/8
Q:1/4=126
M:4/4
K:A
V:1 treble-8 nm="Tenor"
V:2 treble-8 nm="Tenor"
V:3 bass nm="Bass"
V:4 bass nm="Bass"
V:1
"^Allegro maestoso e marcato. M. M."!f! !>!A3 A A2 (3(A,CE) | !>!A2 !>!A2 !>!A2 !>!A2 | %2
w: Lad os hvirv- le _ _|Vel- komst- san- gen,|
 !>!A3/2!<(! A/ A A!<)! !>!B3 B | !>!c4- c z z2 | !>!c3 c c2 (3(CEG) | !>!c2 !>!c2 !>!c2 !>!c2 | %6
w: Brø- dre, mot det gla- de|Tog! _|To- ne højt paa _ _|Mær- ke- stan- gen|
 !>!c3/2 c/ c c !>!^d3 d | !>!e4- e z z2 |!p! !>!B3 B .c2 .B2 | .A3/2 c/ .B2 z2 E2- | %10
w: Har- pen i dens e- get|Sprog! _|Let paa Fo- den|lys i Sind, San-|
 E3/2 E/"^cresc." G B !>!d3 d |!f! f6 z2 | e8- | e2 !>!=f2 !>!^f2 !>!=g2 | (!>!g4 !>!f2) !>!e2 | %15
w: * ger- færd, drag ind, drag|ind!|San-|* ger- færd, drag|ind, _ drag|
 !>!a6 z2 ||!f! !>!A3 A A2 (3(A,CE) | !>!A2 !>!A2 !>!A2 !>!A2 |!<(! !>!A3 A!<)! !>!B3/2 B/ B B | %19
w: ind!|Ung- doms- sang er _ _|kjæk- kest Sej- ler,|To- nen vug- ger som en|
 !>!c4- c z z2 | !>!c3 c c2 (3(CEG) | !>!c2 !>!c2 !>!c2 !>!c2 | !>!c3/2 c/ c c !>!^d3 d | %23
w: Sø. _|Ung- doms- sang er _ _|gla- dest Bej- ler,|To- nen er en dej- lig|
 !>!e4- e z z2 |!p! !>!B3 B .c2 .B2 | .A3/2 c/ .B2 z2 E2- | E3/2 E/"^cresc." G B !>!d3 d | %27
w: Mø. _|Svul- men- de for|Som- mer- vind, San-|* ger- baad, glid ind, glid|
!f! f6 z2 | e8- | e2 !>!=f2 !>!^f2 !>!=g2 | (!>!g4 !>!f2) !>!e2 | !>!a6 z2 || %32
w: ind!|San-|* ger- baad, glid|ind, _ glid|ind!|
!f! !>!A3 A A2 (3(A,CE) | !>!A2 !>!A2 !>!A2 !>!A2 | z2!<(! A A!<)! !>!B3 B | !>!c3/2 c/ c2 z4 | %36
w: Syng dig sam- men, _ _|San- ger- ska- re,|i et e- nigt|To- ne- væld!|
 !>!c3 c c2 (3(CEG) | !>!c2 !>!c2 !>!c2 !>!c2 | z2 c c !>!^d3 d | !>!e3/2 e/ e2 z4 | %40
w: In- den spredt I _ _|at- ter fa- re,|vil vi smel- te|Sjæl i Sjæl.|
!p! !>!B3 B .c2 .B2 | .A3/2 c/ .B2 z2 E2- | E3/2 E/"^cresc." G B !>!d3 d |!f! f6 z2 | e8- | %45
w: Der- for til vor|To- ne- fest, San-|* ger- flok, vel mødt som|bedst!|San-|
 e2 !>!=f2!f! !>!^f2 !>!=g2 | (!>!g4 !>!f2) !>!e2 | !>!a6 z2 |] %48
w: * ger- flok, vel|mødt _ som|bedst!|
V:2
!f! !>!A3 A A2 (3(A,CE) | !>!A2 !>!A2 !>!A2 !>!G2 | !>!F3/2!<(! F/ F F!<)! !>!A3 A | %3
w: Lad os hvirv- le _ _|Vel- komst- san- gen,|Brø- dre, mot det gla- de|
 !>!A4- A z z2 | !>!c3 c c2 (3(CEG) | !>!c2 !>!c2 !>!c2 !>!B2 | !>!A3/2 A/ A A !>!c3 c | %7
w: Tog! _|To- ne højt paa _ _|Mær- ke- stan- gen|Har- pen i dens e- get|
 !>!c4- c z z2 |!p! !>!G3 G .A2 .G2 | .A3/2 A/ .G2 z2 E2- | E3/2 E/"^cresc." G B !>!d3 d | %11
w: Sprog! _|Let paa Fo- den|lys i Sind, San-|* ger- færd, drag ind, drag|
!f! ^d6 z2 | d8- | d2 !>!d2 !>!d2 !>!d2 | !>!d6 !>!d2 | !>![ce]6 z2 ||!f! !>!A3 A A2 (3(A,CE) | %17
w: ind!|San-|* ger- færd, drag|ind, drag|ind!|Ung- doms- sang er _ _|
 !>!A2 !>!A2 !>!A2 !>!G2 |!<(! !>!F3 F!<)! !>!F3/2 F/ A A | !>!A4- A z z2 | !>!c3 c c2 (3(CEG) | %21
w: kjæk- kest Sej- ler,|To- nen vug- ger som en|Sø. _|Ung- doms- sang er _ _|
 !>!c2 !>!c2 !>!c2 !>!B2 | !>!A3/2 A/ A A !>!c3 c | !>!c4- c z z2 |!p! !>!G3 G .A2 .G2 | %25
w: gla- dest Bej- ler,|To- nen er en dej- lig|Mø. _|Svul- men- de for|
 .A3/2 A/ .G2 z2 E2- | E3/2 E/"^cresc." G B !>!d3 d |!f! ^d6 z2 | d8- | d2 !>!d2 !>!d2 !>!d2 | %30
w: Som- mer- vind, San-|* ger- baad, glid ind, glid|ind!|San-|* ger- baad, glid|
 !>!d6 !>![de]2 | !>![ce]6 z2 ||!f! !>!A3 A A2 (3(A,CE) | !>!A2 !>!A2 !>!A2 !>!G2 | %34
w: ind, glid|ind!|Syng dig sam- men, _ _|San- ger- ska- re,|
 z2!<(! F F!<)! !>!A3 A | !>!A3/2 A/ A2 z4 | !>!c3 c c2 (3(CEG) | !>!c2 !>!c2 !>!c2 !>!B2 | %38
w: i et e- nigt|To- ne- væld!|In- den spredt I _ _|at- ter fa- re,|
 z2 A A !>!c3 c | !>!c3/2 c/ c2 z4 |!p! !>!G3 G .A2 .G2 | .A3/2 A/ .G2 z2 E2- | %42
w: vil vi smel- te|Sjæl i Sjæl.|Der- for til vor|To- ne- fest, San-|
 E3/2 E/"^cresc." G B !>!d3 d |!f! ^d6 z2 | d8- | d2 !>!d2 !>!d2 !>!d2 | !>!d6 !>![de]2 | %47
w: * ger- flok, vel mødt som|bedst!|San-|* ger- flok, vel|mødt som|
 !>![ce]6 z2 |] %48
w: bedst!|
V:3
!f! !>!A,3 A, A,2 (3(A,,C,E,) | !>!A,2 !>!G,2 !>!F,2 !>!E,2 | %2
w: Lad os hvirv- le _ _|Vel- komst- san- gen,|
 !>!D,3/2!<(! D,/ D, D,!<)! !>!F,3 F, | !>!E,4- E, z z2 | !>!C3 C C2 (3(C,E,G,) | %5
w: Brø- dre, mot det gla- de|Tog! _|To- ne højt paa _ _|
 !>!C2 !>!B,2 !>!A,2 !>!G,2 | !>!F,3/2 F,/ F, F, !>!A,3 A, | !>!G,4- G, z z2 | %8
w: Mær- ke- stan- gen|Har- pen i dens e- get|Sprog! _|
!p! !>!E,3 E, .E,2 .E,2 | .E,3/2 E,/ .E,2 z2 E,2- | E,3/2 E,/"^cresc." E, G, !>!A,3 A, | %11
w: Let paa Fo- den|lys i Sind, San-|* ger- færd, drag ind, drag|
!f! =C6 z2 | (B,2 E2 D2 C2 | B,2) !>!B,2 !>!B,2 !>!B,2 | (!>!B,4 !>!A,2) !>!G,2 | !>!A,6 z2 || %16
w: ind!|San- * * *|* ger- færd, drag|ind, _ drag|ind!|
!f! !>!A,3 A, A,2 (3(A,,C,E,) | !>!A,2 !>!G,2 !>!F,2 !>!E,2 | %18
w: Ung- doms- sang er _ _|kjæk- kest Sej- ler,|
!<(! !>!D,3 D,!<)! !>!D,3/2 D,/ F, F, | !>!E,4- E, z z2 | !>!C3 C C2 (3(C,E,G,) | %21
w: To- nen vug- ger som en|Sø. _|Ung- doms- sang er _ _|
 !>!C2 !>!B,2 !>!A,2 !>!G,2 | !>!F,3/2 F,/ F, F, !>!A,3 A, | !>!G,4- G, z z2 | %24
w: gla- dest Bej- ler,|To- nen er en dej- lig|Mø. _|
!p! !>!E,3 E, .E,2 .E,2 | .E,3/2 E,/ .E,2 z2 E,2- | E,3/2 E,/"^cresc." E, G, !>!A,3 A, | %27
w: Svul- men- de for|Som- mer- vind, San-|* ger- baad, glid ind, glid|
!f! =C6 z2 | (B,2 E2 D2 C2 | B,2) !>!B,2 !>!B,2 !>!B,2 | (!>!B,4 !>!A,2) !>!G,2 | !>!A,6 z2 || %32
w: ind!|San- * * *|* ger- baad, glid|ind, _ glid|ind!|
!f! !>!A,3 A, A,2 (3(A,,C,E,) | !>!A,2 !>!G,2 !>!F,2 !>!E,2 | z2!<(! D, D,!<)! !>!F,3 F, | %35
w: Syng dig sam- men, _ _|San- ger- ska- re,|i et e- nigt|
 !>!E,3/2 E,/ E,2 z4 | !>!C3 C C2 (3(C,E,G,) | !>!C2 !>!B,2 !>!A,2 !>!G,2 | z2 F, F, !>!A,3 A, | %39
w: To- ne- væld!|In- den spredt I _ _|at- ter fa- re,|vil vi smel- te|
 !>!G,3/2 G,/ G,2 z4 |!p! !>!E,3 E, .E,2 .E,2 | .E,3/2 E,/ .E,2 z2 E,2- | %42
w: Sjæl i Sjæl.|Der- for til vor|To- ne- fest, San-|
 E,3/2 E,/"^cresc." E, G, !>!A,3 A, |!f! =C6 z2 | (B,2 E2 D2 C2 | B,2) !>!B,2 !>!B,2 !>!B,2 | %46
w: * ger- flok, vel mødt som|bedst!|San- * * *|* ger- flok, vel|
 (!>!B,4 !>!A,2) !>!G,2 | !>!A,6 z2 |] %48
w: mødt _ som|bedst!|
V:4
!f! !>!A,3 A, A,2 (3(A,,C,E,) | !>!A,2 !>!G,2 !>!F,2 !>!E,2 | %2
w: Lad os hvirv- le _ _|Vel- komst- san- gen,|
 !>!D,3/2!<(! D,/ D, D,!<)! !>!D,3 D, | !>!A,,4- A,, z z2 | !>!C3 C C2 (3(C,E,G,) | %5
w: Brø- dre, mot det gla- de|Tog! _|To- ne højt paa _ _|
 !>!C2 !>!B,2 !>!A,2 !>!G,2 | !>!F,3/2 F,/ F, F, !>!F,3 F, | !>!C,4- C, z z2 | %8
w: Mær- ke- stan- gen|Har- pen i dens e- get|Sprog! _|
!p! !>!D,3 D, .D,2 .D,2 | .C,3/2 A,,/ .E,2 z2 E,2- | E,3/2 E,/"^cresc." E, E, !>!F,3 F, | %11
w: Let paa Fo- den|lys i Sind, San-|* ger- færd, drag ind, drag|
!f! A,6 z2 | (G,2 C2 B,2 A,2 | G,2) !>!=G,2 !>!F,2 !>!^E,2 | !>!E,6 !>!E,2 | !>![A,,E,]6 z2 || %16
w: ind!|San- * * *|* ger- færd, drag|ind, drag|ind!|
!f! !>!A,3 A, A,2 (3(A,,C,E,) | !>!A,2 !>!G,2 !>!F,2 !>!E,2 | %18
w: Ung- doms- sang er _ _|kjæk- kest Sej- ler,|
!<(! !>!D,3 D,!<)! !>!D,3/2 D,/ D, D, | !>!A,,4- A,, z z2 | !>!C3 C C2 (3(C,E,G,) | %21
w: To- nen vug- ger som en|Sø. _|Ung- doms- sang er _ _|
 !>!C2 !>!B,2 !>!A,2 !>!G,2 | !>!F,3/2 F,/ F, F, !>!F,3 F, | !>!C,4- C, z z2 | %24
w: gla- dest Bej- ler,|To- nen er en dej- lig|Mø. _|
!p! !>!D,3 D, .D,2 .D,2 | .C,3/2 A,,/ .E,2 z2 E,2- | E,3/2 E,/"^cresc." E, E, !>!F,3 F, | %27
w: Svul- men- de for|Som- mer- vind, San-|* ger- baad, glid ind, glid|
!f! A,6 z2 | (G,2 C2 B,2 A,2 | G,2) !>!=G,2 !>!F,2 !>!^E,2 | !>!E,6 !>!E,2 | !>![A,,E,]6 z2 || %32
w: ind!|San- * * *|* ger- baad, glid|ind, glid|ind!|
!f! !>!A,3 A, A,2 (3(A,,C,E,) | !>!A,2 !>!G,2 !>!F,2 !>!E,2 | z2!<(! D, D,!<)! !>!D,3 D, | %35
w: Syng dig sam- men, _ _|San- ger- ska- re,|i et e- nigt|
 !>!A,,3/2 A,,/ A,,2 z4 | !>!C3 C C2 (3(C,E,G,) | !>!C2 !>!B,2 !>!A,2 !>!G,2 | z2 F, F, !>!F,3 F, | %39
w: To- ne- væld!|In- den spredt I _ _|at- ter fa- re,|vil vi smel- te|
 !>!C,3/2 C,/ C,2 z4 |!p! !>!D,3 D, .D,2 .D,2 | .C,3/2 A,,/ .E,2 z2 E,2- | %42
w: Sjæl i Sjæl.|Der- for til vor|To- ne- fest, San-|
 E,3/2 E,/"^cresc." E, E, !>!F,3 F, |!f! A,6 z2 | (G,2 C2 B,2 A,2 | G,2) !>!=G,2 !>!F,2 !>!^E,2 | %46
w: * ger- flok, vel mødt som|bedst!|San- * * *|* ger- flok, vel|
 !>!E,6 !>!E,2 | !>![A,,E,]6 z2 |] %48
w: mødt som|bedst!|

